public/Star.svg

<svg width="12" height="13" viewBox="0 0 12 13" fill="none" xmlns="http://www.w3.org/2000/svg">
<path d="M6.20677 9.44059L8.57093 10.9384C8.87313 11.1299 9.24833 10.8451 9.15866 10.4924L8.4756 7.80539C8.45637 7.73055 8.45864 7.6518 8.48217 7.5782C8.5057 7.5046 8.54953 7.43913 8.60861 7.38933L10.7286 5.62479C11.0072 5.39294 10.8634 4.93063 10.5055 4.9074L7.73691 4.72772C7.66234 4.72239 7.59081 4.69599 7.53067 4.65159C7.47052 4.60718 7.42422 4.54661 7.39717 4.47691L6.36459 1.87661C6.33652 1.80264 6.28661 1.73895 6.22149 1.69401C6.15637 1.64907 6.07912 1.625 6 1.625C5.92088 1.625 5.84363 1.64907 5.77851 1.69401C5.71339 1.73895 5.66348 1.80264 5.63542 1.87661L4.60284 4.47691C4.57578 4.54661 4.52949 4.60718 4.46934 4.65159C4.40919 4.69599 4.33766 4.72239 4.26309 4.72772L1.49447 4.9074C1.13658 4.93063 0.992798 5.39294 1.27136 5.62479L3.39139 7.38933C3.45047 7.43913 3.4943 7.5046 3.51783 7.5782C3.54136 7.6518 3.54364 7.73055 3.5244 7.80539L2.89094 10.2973C2.78333 10.7206 3.23358 11.0623 3.59622 10.8325L5.79323 9.44059C5.85502 9.40126 5.92675 9.38036 6 9.38036C6.07325 9.38036 6.14498 9.40126 6.20677 9.44059V9.44059Z" stroke="white" stroke-linecap="round" stroke-linejoin="round"/>
</svg>

<svg width="12" height="13" fill="none" xmlns="http://www.w3.org/2000/svg"><path d="m6.207 9.44 2.364 1.498c.302.192.677-.093.588-.446l-.683-2.687a.41.41 0 0 1 .133-.416l2.12-1.764c.278-.232.134-.694-.223-.718l-2.77-.18a.395.395 0 0 1-.339-.25l-1.032-2.6a.39.39 0 0 0-.73 0l-1.032 2.6a.395.395 0 0 1-.34.25l-2.769.18c-.357.024-.501.486-.223.718l2.12 1.764a.41.41 0 0 1 .133.416l-.633 2.492c-.108.424.343.765.705.535l2.197-1.391a.385.385 0 0 1 .414 0v0Z" stroke="#fff" stroke-linecap="round" stroke-linejoin="round"/></svg>
